X: 26061
T: McCormack's Breakdown
R: reel
M: 4/4
K: Cmajor
|:A,CDE F2GF|[M:2/4] E2 DE|[M:4/4] C2EC GCEC|GCEC GCEC|DEDC A,CDE|
F2 GFE2 DE|CDEG cded|1 cAGE D2 DC:|2 cAGE D2 z2||
|:Addc d2 ed|cded cAGE|CDEG c3d|cGEG cGEC|
Addc d2 ed|cded cAGE|CDEG cded|cAGE D4:|

